img/icons/social/WhatsApp-2.svg

<svg width="32" height="32" viewBox="0 0 32 32" fill="none" xmlns="http://www.w3.org/2000/svg">
<g clip-path="url(#clip0_63806_5)">
<path d="M10.0752 26.6866L10.2281 26.7705C12.1319 27.8148 14.3202 28.4101 16.6507 28.4101C23.9912 28.4101 29.9354 22.5092 29.9354 15.2373C29.9354 7.96532 23.9909 2.06445 16.6511 2.06445C9.31029 2.06445 3.36594 7.96533 3.36594 15.2373C3.36594 17.7256 4.06217 20.0526 5.2709 22.0374L5.37001 22.2001L5.30881 22.3806L3.09668 28.9032L9.90875 26.7394L10.0752 26.6866Z" stroke="black" stroke-width="3"/>
<path d="M14.5022 11.6164C14.6213 11.853 14.747 12.2269 14.5325 12.6518C14.517 12.6827 14.502 12.7133 14.4871 12.7439L14.487 12.7441C14.394 12.9337 14.3022 13.121 14.1064 13.3476C14.0616 13.3994 14.0095 13.4622 13.9538 13.5291L13.9452 13.5395L13.9441 13.5409C13.8106 13.7016 13.6578 13.8856 13.5336 14.0084C13.4864 14.055 13.4562 14.0857 13.4332 14.114C13.4089 14.1402 13.4112 14.1606 13.4436 14.2067C13.649 14.5569 14.3554 15.6963 15.3902 16.6111C16.4999 17.5921 17.4424 17.999 17.966 18.225L17.9705 18.2269C18.0773 18.2731 18.1666 18.3117 18.236 18.3462C18.3674 18.4114 18.436 18.4166 18.436 18.4166L18.4368 18.4161C18.4368 18.4161 18.465 18.3964 18.4981 18.3589C18.717 18.1112 19.397 17.3177 19.6209 16.9838C19.7913 16.7297 20.0166 16.5513 20.3176 16.5175C20.5682 16.4893 20.8075 16.5754 20.9618 16.631L20.9642 16.6319C21.1586 16.7018 21.7192 16.965 22.2441 17.2162C22.7833 17.4744 23.3269 17.7403 23.5118 17.8318C23.5639 17.8577 23.6191 17.8841 23.6741 17.9105L23.6879 17.9172L23.6947 17.9205C23.7986 17.9705 23.9009 18.0195 23.9798 18.0626C24.1062 18.1314 24.2833 18.2387 24.3949 18.422L24.3962 18.4243C24.4769 18.5585 24.4978 18.7249 24.5062 18.8328C24.5165 18.9651 24.5145 19.1217 24.4995 19.2933C24.4696 19.6373 24.3851 20.0691 24.2198 20.5295C24.0151 21.0967 23.4582 21.5798 22.9434 21.9099C22.4224 22.2439 21.8101 22.5061 21.3719 22.5457C21.2878 22.5532 21.2371 22.5656 21.1616 22.5841L21.1606 22.5843C21.1132 22.5958 21.0562 22.6097 20.9751 22.6263C20.7829 22.6657 20.5593 22.6899 20.2372 22.6589C19.6217 22.5996 18.6415 22.3368 16.7785 21.6096C14.8317 20.8492 13.2611 19.488 12.1633 18.3056C11.6121 17.7121 11.1746 17.1577 10.8634 16.7365C10.7076 16.5257 10.5834 16.3481 10.4924 16.2159C10.4567 16.1639 10.4258 16.1185 10.4009 16.0818L10.3822 16.0545C10.3682 16.0338 10.3571 16.0177 10.3484 16.0052C10.3389 15.9915 10.3355 15.9869 10.3355 15.9869L10.3349 15.986C10.2359 15.8555 9.84566 15.3409 9.47882 14.6246C9.11366 13.9115 8.75171 12.9608 8.75171 11.9674C8.75171 10.1195 9.68406 9.1333 10.0782 8.7163L10.0783 8.71621C10.1046 8.68839 10.1288 8.66279 10.1499 8.63995C10.5842 8.17019 11.1078 8.04346 11.4523 8.04346C11.5906 8.04346 11.7262 8.05206 11.843 8.05956L11.8465 8.05978C11.9673 8.06755 12.065 8.07383 12.1538 8.07383C12.1633 8.07383 12.1757 8.07315 12.2096 8.07098L12.2105 8.07091C12.2391 8.06907 12.2826 8.06628 12.3298 8.06629C12.43 8.06631 12.5626 8.07837 12.7066 8.14019C13.0012 8.26673 13.2151 8.54284 13.3866 8.95134C13.4846 9.18485 13.6267 9.52779 13.7772 9.89099C13.8614 10.0941 13.9482 10.3035 14.0314 10.5036C14.1476 10.7833 14.2568 11.0452 14.3426 11.2481C14.3854 11.3497 14.422 11.4354 14.4506 11.501C14.4648 11.5338 14.4766 11.5607 14.4859 11.5813L14.4973 11.6061L14.5008 11.6134L14.5022 11.6164Z" stroke="black" stroke-width="2"/>
</g>
<defs>
<clipPath id="clip0_63806_5">
<rect width="32" height="32" fill="white"/>
</clipPath>
</defs>
</svg>

<svg width="32" height="32" fill="none" xmlns="http://www.w3.org/2000/svg"><g clip-path="url(#clip0_63806_5)" stroke="#000"><path d="M10.075 26.687l.153.083a13.313 13.313 0 006.423 1.64c7.34 0 13.284-5.9 13.284-13.173 0-7.272-5.944-13.173-13.284-13.173-7.34 0-13.285 5.901-13.285 13.173 0 2.489.696 4.816 1.905 6.8l.099.163-.061.18-2.212 6.523 6.812-2.164.166-.052z" stroke-width="3"/><path d="M14.502 11.616c.12.237.245.61.03 1.036l-.045.092h0a2.54 2.54 0 01-.38.604 6.931 6.931 0 00-.153.181l-.009.01v.002c-.134.16-.287.345-.411.467a1.403 1.403 0 00-.1.106c-.025.026-.023.047.01.093.205.35.911 1.49 1.946 2.404a8.98 8.98 0 002.576 1.614l.005.002c.106.046.196.085.265.12.131.064.2.07.2.07h0s.029-.02.062-.058c.219-.248.899-1.041 1.123-1.375.17-.254.396-.433.697-.467.25-.028.49.058.644.114h.002c.195.07.755.334 1.28.585.54.258 1.083.524 1.268.616l.162.078.014.007.007.003c.104.05.206.1.285.143.126.068.303.176.415.359l.001.002c.08.134.102.3.11.409.01.132.009.289-.006.46-.03.344-.115.776-.28 1.236-.205.568-.762 1.05-1.277 1.38-.52.335-1.133.597-1.571.637-.084.007-.135.02-.21.038h-.001a3.54 3.54 0 01-.186.042c-.192.04-.416.064-.738.033-.615-.06-1.595-.322-3.458-1.05-1.947-.76-3.518-2.121-4.616-3.303a18.288 18.288 0 01-1.762-2.224l-.019-.027a4.419 4.419 0 00-.034-.05l-.013-.018v-.001a9.251 9.251 0 01-.856-1.361c-.365-.713-.727-1.664-.727-2.658 0-1.848.932-2.834 1.326-3.25h0l.072-.077c.434-.47.958-.597 1.302-.597.139 0 .274.01.391.017h.004c.12.008.218.014.307.014.01 0 .022 0 .056-.003h0c.03-.002.073-.005.12-.005.1 0 .233.012.377.074.294.127.508.403.68.811l.39.94.254.613a137.376 137.376 0 00.455 1.077l.011.025.004.007.001.003z" stroke-width="2"/></g><defs><clipPath id="clip0_63806_5"><path fill="#fff" d="M0 0h32v32H0z"/></clipPath></defs></svg>
